X:87
C:Page 43
T:Morgiana in Ireland. MBe.87
S:Matthew Betham MS, Towcett Cumbria, 1815
O:England;Cumbria;Towcett
Z:VMP – Hugh Taylor, 2012
M:6/8
L:1/16
Q:3/8=100
R:.Jig
N:NB-I have added a rest here.
K:G
D4 D2 G4 G2|A2G2A2 B4 E2|D4 D2 G4 G2|B4 c2 B2G2E2|
D4 D2 G4 G2|A2G2A2 B4 e2|e2d2c2 B2c2A2|G4 A2 B2G2E2:|
|:d4 d2 d2c2B2|e4 f2 g6|d2c2d2 d2c2B2|e4 f2 g6|
d4 d2 d2c2B2|e2f2e2 e2f2g2|d2e2c2 B2c2A2|G2F2G2 B2G2E2:|
|:G2F2G2 Bd2 z3|A2G2A2 ce2 z3|G2F2G2 A4 B2|B4 c2 B2G2E2|
G2F2G2 Bd2 z3|ce2 z3 Bd2 z3|dg2 z3 B2d2″^NB”z2|G4 A2 B2G2E2:|

